X:1
T:Gilgal, LM
T:Gilgal, LM
T:A Compilation of Genuine Church Music, 1832
T:Public Domain Courtesy of the Cyber Hymnal™
C:A Compilation of Genuine Church Music, 1832
Z:Public Domain
Z:Courtesy of the Cyber Hymnal™
%%score ( 1 2 ) ( 3 4 )
L:1/8
Q:1/4=107
M:2/4
K:Bb
V:1 treble 
V:2 treble 
V:3 bass 
V:4 bass 
V:1
 [DF]2 | [DB]2 F2 | ([EG][Ge] [Fd])[Ec] | [DB]2 [EA]2 | [DB]3 [Fd] | [Fc]2 (cB) | (AF) (GB) | %7
 [FA]2 [=EG]2 | F3 [DB] | [DF]2 [B,E]2 | [B,D]2 [DF]2 | [FB]2 [Fc]2 | ([Fd]>[Ec] [DB])[FA] | %13
 [FB]2 [DF]2 | ([EG][Ge] [Fd])[Ec] | [DB]2 [CA]2 | !fermata![DB]2 |] %17
V:2
 x2 | x2 F2 | x4 | x4 | x4 | x2 =E2 | F2 F2 | x4 | F3 x | x4 | x4 | x4 | x4 | x4 | x4 | x4 | x2 |] %17
V:3
 [B,,B,]2 | [B,,F,]2 [D,B,]2 | [E,B,]3 [E,G,] | F,2 [F,C]2 | [B,,B,]3 [B,,B,] | [F,A,]2 (G,C) | %6
 (CA,) [B,,D]2 | [C,C]2 (CB,) | [F,A,]3 [B,,F,] | [B,,B,]2 [B,,G,]2 | [B,,F,]2 [B,,B,]2 | %11
 ([B,,D][B,,B,]) ([F,A,][A,C]) | B,3 [F,C] | [D,B,]2 [B,,B,]2 | [E,B,]3 [E,G,] | F,2 F,2 | %16
 !fermata![B,,F,]2 |] %17
V:4
 x2 | x4 | x4 | F,2 x2 | x4 | x2 C,2 | F,2 x2 | x2 C,2 | x4 | x4 | x4 | x4 | B,3 x | x4 | x4 | %15
 F,2 F,2 | x2 |] %17

